X: 1
T:Sandy Boys
L:1/8
M:C|
K:D
|: "A"v[a2A2] [g2A2] [e2A2] [g2A2] | e-d c2 A2 u[a2A2]- |\
   .[a2A2] u.[g2A2]  [e2A2] [g2A2] | a3 b- a2 va2- |
   "A"v[a2A2] [g2A2] [e2A2] [g2A2] | e-d c2 A2 A-B |\
   c2e2 "E"e-dc2 | "A"A6 A2 :|
|: "A"e4 e4 | d-Ac2 A2A-B | c2e2 "D"d2A-B | "A"c2e2 d-cA2 |
   "A"e4 e4 | d-Ac2 A2A-B | c2e2 "E"e-dc2 | "A"A4 A4 :|
N:Portland Collection, pg 173 adapted by Peter Ostapenko.
N:Last update - PO 9/3/2007.
N:D Major



